X:1
T:[ID 1-26b]
T:[ID 1-26b]
T:Bezeichnung standardisiert: Menuett [ohne Titel]
T:Urheber unbekannt Datum in der hier transkribierten schriftlichen Quelle: vermutlich vor 1767
C:Urheber unbekannt
C:Datum in der hier transkribierten schriftlichen Quelle: vermutlich vor 1767
L:1/8
M:3/4
K:D
V:1 treble 
V:1
 a2 gfec | dAFefg | a2 gfec | d4 A2 | BgBg B2 | AfAf A2 | efgafg | e6 :: e2 cA^GB | A2 ABcd | %10
 ef g2 f2 | edcB A2 | gebged | c2 BA d2 | egfedc | !fermata!d6 :| %16

